src/assets/twitter.svg

<svg width="21" height="22" viewBox="0 0 21 22" fill="none" xmlns="http://www.w3.org/2000/svg">
<path d="M12.4418 9.392L20.0363 0.5H18.2363L11.6438 8.2205L6.37578 0.5H0.300781L8.26578 12.176L0.300781 21.5H2.10078L9.06378 13.346L14.6273 21.5H20.7023L12.4418 9.392ZM9.97728 12.278L9.17028 11.1155L2.74878 1.865H5.51328L10.6943 9.3305L11.5013 10.493L18.2378 20.198H15.4733L9.97728 12.278Z" fill="white"/>
</svg>

<svg xmlns="http://www.w3.org/2000/svg" width="21" height="22" fill="none"><path fill="#fff" d="M12.442 9.392 20.036.5h-1.8l-6.592 7.72L6.376.5H.3l7.965 11.676L.3 21.5h1.8l6.963-8.154 5.563 8.154h6.075zm-2.465 2.886-.807-1.162L2.75 1.865h2.764l5.181 7.466.807 1.162 6.737 9.705h-2.765z"/></svg>
